X:357
T:John Dwyer's
R:reel
C:John Dwyer (1933-)
Z:id:hn-reel-357
M:C|
K:G
ge|dBBA GD~D2|GB~B2 dBGB|~A3B AGED|EGAB cABc|
dBBA GD~D2|GB~B2 dBGB|ABBA B2ge|dBAF G2:|
|:ga|bg~g2 bgdg|af~f2 afdf|bg~g2 aged|eaag afga|
bg~g2 agef|g2ge dBGA|~B3A B2ge|dBAF G2:|
P:variations
|:ge|dB~B2 GEDE|GB~B2 dBGB|~A3B AGED|EGAB c2Bc|
dB~B2 GEDE|GB~B2 dBGA|~B3A B2ge|dBAF G2:|
|:ga|bg~g2 bgdg|af~f2 afdf|bg~g2 bgag|eaag a2ga|
bg~g2 agef|g2ge dBGA|~B3A B2ge|dBAF G2:|

